src/assets/icons/weeks,fancy,18.svg

<svg width="48" height="48" viewBox="0 0 48 48" fill="none" xmlns="http://www.w3.org/2000/svg">
<rect opacity="0.2" x="4" y="6" width="40" height="40" rx="4" fill="black"/>
<path d="M18.4045 20.6364H14.3576L9.31641 23.8281V27.6463L13.9798 24.723H14.0991V41H18.4045V20.6364ZM30.8409 41.2784C35.4347 41.2784 38.7358 38.8224 38.7457 35.5213C38.7358 32.9759 36.777 30.8977 34.331 30.4901V30.3509C36.4588 29.9134 37.9801 28.0739 37.9901 25.8366C37.9801 22.6847 34.9574 20.358 30.8409 20.358C26.7145 20.358 23.6918 22.6847 23.7017 25.8366C23.6918 28.0639 25.1932 29.9134 27.3608 30.3509V30.4901C24.875 30.8977 22.9361 32.9759 22.946 35.5213C22.9361 38.8224 26.2472 41.2784 30.8409 41.2784ZM30.8409 38.1165C28.7926 38.1165 27.4205 36.9034 27.4205 35.1832C27.4205 33.4233 28.8622 32.1506 30.8409 32.1506C32.8097 32.1506 34.2614 33.4233 34.2614 35.1832C34.2614 36.9134 32.8793 38.1165 30.8409 38.1165ZM30.8409 29.0185C29.1207 29.0185 27.8977 27.8949 27.8977 26.2841C27.8977 24.6932 29.1009 23.5994 30.8409 23.5994C32.571 23.5994 33.7841 24.7031 33.7841 26.2841C33.7841 27.8949 32.5511 29.0185 30.8409 29.0185Z" fill="black"/>
<g opacity="0.4">
<path d="M10 4C10 2.89543 10.8954 2 12 2C13.1046 2 14 2.89543 14 4V8C14 9.10457 13.1046 10 12 10C10.8954 10 10 9.10457 10 8V4Z" fill="black"/>
<path d="M34 4C34 2.89543 34.8954 2 36 2C37.1046 2 38 2.89543 38 4V8C38 9.10457 37.1046 10 36 10C34.8954 10 34 9.10457 34 8V4Z" fill="black"/>
</g>
<path fill-rule="evenodd" clip-rule="evenodd" d="M10 6.00869C7.52043 6.04456 6.11466 6.22849 5.17157 7.17157C4 8.34315 4 10.2288 4 14V16H44V14C44 10.2288 44 8.34315 42.8284 7.17157C41.8853 6.22849 40.4796 6.04456 38 6.00869V8C38 9.10457 37.1046 10 36 10C34.8954 10 34 9.10457 34 8V6H14V8C14 9.10457 13.1046 10 12 10C10.8954 10 10 9.10457 10 8V6.00869Z" fill="black"/>
</svg>

<svg xmlns="http://www.w3.org/2000/svg" width="48" height="48" fill="none" viewBox="0 0 48 48">
  <rect width="40" height="40" x="4" y="6" fill="#000" opacity=".2" rx="4"/>
  <path fill="#000" d="M18.404 20.636h-4.046l-5.042 3.192v3.818l4.664-2.923h.12V41h4.304V20.636zm12.437 20.642c4.594 0 7.895-2.456 7.905-5.757-.01-2.545-1.969-4.623-4.415-5.03v-.14c2.128-.438 3.65-2.277 3.66-4.514-.01-3.152-3.034-5.479-7.15-5.479-4.127 0-7.15 2.327-7.14 5.479-.01 2.227 1.492 4.076 3.66 4.514v.14c-2.486.407-4.425 2.485-4.415 5.03-.01 3.301 3.301 5.757 7.895 5.757zm0-3.161c-2.048 0-3.42-1.214-3.42-2.934 0-1.76 1.441-3.032 3.42-3.032 1.969 0 3.42 1.272 3.42 3.032 0 1.73-1.382 2.934-3.42 2.934zm0-9.098c-1.72 0-2.943-1.124-2.943-2.735 0-1.59 1.203-2.685 2.943-2.685 1.73 0 2.943 1.104 2.943 2.685 0 1.61-1.233 2.735-2.943 2.735z"/>
  <g opacity=".4">
    <path fill="#000" d="M10 4a2 2 0 114 0v4a2 2 0 11-4 0V4zM34 4a2 2 0 114 0v4a2 2 0 11-4 0V4z"/>
  </g>
  <path fill="#000" fill-rule="evenodd" d="M10 6.009c-2.48.036-3.885.22-4.828 1.163C4 8.343 4 10.229 4 14v2h40v-2c0-3.771 0-5.657-1.172-6.828-.943-.944-2.348-1.127-4.828-1.163V8a2 2 0 11-4 0V6H14v2a2 2 0 11-4 0V6.009z" clip-rule="evenodd"/>
</svg>
